X:734
T:Mrs. Stewart, Inverugie
R:Strathspey
C:William Marshall
B:The Athole Collection
M:C
L:1/8
K:D
D<D F>D d/c/B/A/ F2|B<E E>F G>AB>d|D<D F>A d/c/B/A/ F>D|
A<d c>e d<D d>f:|
|:d>AF>A d/c/B/A/ d2|e<E E>F G>AB>c|1 d>AF>A d/e/f/g/ ag|
f>dA>G F>DF>A:|2 d>fe>c d>BA>F|G<B A>c d<D d>f||

